jsapp/svg-icons/qt-calculate.svg

<svg height="642" viewBox="0 0 642 642" width="642" xmlns="http://www.w3.org/2000/svg"><path d="m181.95 182.65v277.41h-54.08v-220.7l-51.42 1.14v-39zm383.55 0-.02 277.41h-54.09v-220.7l-51.39 1.14v-39zm-199.4 47.76v75.41h58.27v48.37h-58.27v78.08h-51.23v-78.08h-58.46v-48.37h58.46v-75.41z"/></svg>

<svg id="Layer_1" data-name="Layer 1" xmlns="http://www.w3.org/2000/svg" viewBox="0 0 642 642"><path d="M181.95,460.06H127.87V239.36L76.45,240.5v-39l105.5-18.85Z"/><path d="M366.1,305.82h58.27v48.37H366.1v78.08H314.87V354.19H256.41V305.82h58.46V230.41H366.1Z"/><path d="M565.48,460.06H511.39V239.36L460,240.5v-39l105.5-18.85Z"/></svg>
